_site/images/icons/folder-upload.svg

<svg height="33" viewBox="0 0 35 33" width="35" xmlns="http://www.w3.org/2000/svg"><path d="m18.6015859 14.3984146c-.1651802-.1581232-.3599584-.282073-.5731581-.364737-.4228541-.1737155-.8971464-.1737155-1.3200005 0-.2131998.082664-.407978.2066138-.5731581.364737l-3.4736855 3.4736855c-.6810546.6810546-.6810546 1.7852622 0 2.4663167.6810545.6810546 1.7852621.6810546 2.4663167 0l.5036844-.5210528v4.4984227c0 .9592318.7776109 1.7368428 1.7368427 1.7368428s1.7368428-.777611 1.7368428-1.7368428v-4.4984227l.5036844.5210528c.326121.3288063.7700508.5137552 1.2331583.5137552s.9070373-.1849489 1.2331584-.5137552c.3288063-.326121.5137551-.7700508.5137551-1.2331583s-.1849488-.9070373-.5137551-1.2331584zm10.9247409-9.18789812h-10.9073725l-.5557897-1.73684276c-.738491-2.08882049-2.7171273-3.48222633-4.9326334-3.4736855h-7.92000295c-2.87769529 0-5.21052825 2.33283296-5.21052825 5.21052826v22.57895572c0 2.8776953 2.33283296 5.2105283 5.21052825 5.2105283h24.31579855c2.8776953 0 5.2105282-2.332833 5.2105282-5.2105283v-17.3684275c0-2.87769526-2.3328329-5.21052822-5.2105282-5.21052822zm1.7368427 22.57895572c0 .9592318-.777611 1.7368428-1.7368427 1.7368428h-24.31579855c-.95923176 0-1.73684275-.777611-1.73684275-1.7368428v-22.57895572c0-.95923177.77761099-1.73684276 1.73684275-1.73684276h7.92000295c.7466963-.00192747 1.4110595.47361667 1.6500006 1.18105307l.9378951 2.84842212c.2389411.7074364.9033043 1.18298054 1.6500006 1.18105307h12.1578993c.9592317 0 1.7368427.77761098 1.7368427 1.73684272z" fill="#0b7a76"/></svg>

<?xml version="1.0" encoding="UTF-8"?>
<svg width="35px" height="33px" viewBox="0 0 35 33" version="1.1" xmlns="http://www.w3.org/2000/svg" xmlns:xlink="http://www.w3.org/1999/xlink">
    <!-- Generator: Sketch 52.6 (67491) - http://www.bohemiancoding.com/sketch -->
    <title>folder-upload</title>
    <desc>Created with Sketch.</desc>
    <g id="Landing-page" stroke="none" stroke-width="1" fill="none" fill-rule="evenodd">
        <g id="1.1--Home" transform="translate(-973.000000, -8169.000000)" fill="#0B7A76" fill-rule="nonzero">
            <g id="Benefit" transform="translate(92.000000, 7937.000000)">
                <g id="Group-50" transform="translate(81.000000, 229.000000)">
                    <g id="Group-11">
                        <g id="folder-upload" transform="translate(800.000000, 3.000000)">
                            <path d="M18.6015859,14.3984146 C18.4364057,14.2402914 18.2416275,14.1163416 18.0284278,14.0336776 C17.6055737,13.8599621 17.1312814,13.8599621 16.7084273,14.0336776 C16.4952275,14.1163416 16.3004493,14.2402914 16.1352692,14.3984146 L12.6615837,17.8721001 C11.9805291,18.5531547 11.9805291,19.6573623 12.6615837,20.3384168 C13.3426382,21.0194714 14.4468458,21.0194714 15.1279004,20.3384168 L15.6315848,19.817364 L15.6315848,24.3157867 C15.6315848,25.2750185 16.4091957,26.0526295 17.3684275,26.0526295 C18.3276593,26.0526295 19.1052703,25.2750185 19.1052703,24.3157867 L19.1052703,19.817364 L19.6089547,20.3384168 C19.9350757,20.6672231 20.3790055,20.852172 20.842113,20.852172 C21.3052205,20.852172 21.7491503,20.6672231 22.0752714,20.3384168 C22.4040777,20.0122958 22.5890265,19.568366 22.5890265,19.1052585 C22.5890265,18.642151 22.4040777,18.1982212 22.0752714,17.8721001 L18.6015859,14.3984146 Z M29.5263268,5.21051648 L18.6189543,5.21051648 L18.0631646,3.47367372 C17.3246736,1.38485323 15.3460373,-0.00855261262 13.1305312,-1.17776284e-05 L5.21052825,-1.17776284e-05 C2.33283296,-1.17776284e-05 7.71313125e-16,2.33282118 0,5.21051648 L0,27.7894722 C7.71313125e-16,30.6671675 2.33283296,33.0000005 5.21052825,33.0000005 L29.5263268,33.0000005 C32.4040221,33.0000005 34.736855,30.6671675 34.736855,27.7894722 L34.736855,10.4210447 C34.736855,7.54334944 32.4040221,5.21051648 29.5263268,5.21051648 Z M31.2631695,27.7894722 C31.2631695,28.748704 30.4855585,29.526315 29.5263268,29.526315 L5.21052825,29.526315 C4.25129649,29.526315 3.4736855,28.748704 3.4736855,27.7894722 L3.4736855,5.21051648 C3.4736855,4.25128471 4.25129649,3.47367372 5.21052825,3.47367372 L13.1305312,3.47367372 C13.8772275,3.47174625 14.5415907,3.94729039 14.7805318,4.65472679 L15.7184269,7.50314891 C15.957368,8.21058531 16.6217312,8.68612945 17.3684275,8.68420198 L29.5263268,8.68420198 C30.4855585,8.68420198 31.2631695,9.46181296 31.2631695,10.4210447 L31.2631695,27.7894722 Z" id="Shape"></path>
                        </g>
                    </g>
                </g>
            </g>
        </g>
    </g>
</svg>
